X: 449
T: Busy Fingers
C:Hank Garland or Tommy Jackson
B: jims roots
M:C|
L:1/8
Q: 1/4=100
K:G
V:1 
|:"G"gbfa gdBG | FGBe dBGE | "C"cedc "G"BAGB | "A"AB^ce "D"d2Bd |
"G"gbfa gdBG | FGBe dBGE | "C"cedc "D"BGAF |[1"G"G2GA G2Bd :|[2 "G"G2GA G2G,2||
|:"G"G,B,DG "C"EFGE | "G"G,B,DG "C"EFGE | "G"G,B,DG "Em"Bdeg | "A"fde^c "D"d2zG,- |
"G"G,B,DG "C"EFGE | "G"G,B,DG "C"EFGE | "G"G,B,DG "Em"EFGA | "D"BGAF "G"G2G,2:|
% abcbook-tune_id 6298c2450d0962eece3a9e44


% abcbook-boost 0
% abcbook-tablature 
% abcbook-transpose 
% abcbook-lastupdated 1654178373590
% abcbook-soundfonts 
% abcbook-repeats 1


